X:1
T:The Dummy Line
M:2/4
L:1/8
K:G
 G2 G2| G2 ED| GG G2| D4| G G2 G| GF ED| E E2 F-| F4-| G2 G2| BB B2|\
 A2 E2| G4| B2 BB| BA GG| BB AA| G2 GG| G G3| z2 ED| F F2 F-| F4| F2 F F-|\
 F E2 F| G G2 G-| G4| G2 G B-| B2 B2| A2 E2| G2 GA| B B2 B| B A2 G-|\
 G4-| G4|
